X:1
T:Cherish The Ladies
C:Traditional
M:6/8
L:1/8
Q:3/8=100
K:D
D|FAd fed|cde fed|FAd fed|edc dcB|
FAd fed|cde fed|agf gfe|BAF D3|]
